assets/images/vk-icon.svg

<svg width="17" height="17" viewBox="0 0 17 17" fill="none" xmlns="http://www.w3.org/2000/svg">
<path d="M15.7886 4.57863C15.8935 4.22422 15.7886 3.96338 15.2839 3.96338H13.6139C13.1886 3.96338 12.9929 4.18737 12.888 4.43689C12.888 4.43689 12.0375 6.50949 10.8352 7.85346C10.4468 8.2419 10.2682 8.36668 10.0556 8.36668C9.95071 8.36668 9.78905 8.2419 9.78905 7.88749V4.57863C9.78905 4.15333 9.66991 3.96338 9.31836 3.96338H6.69282C6.4263 3.96338 6.26752 4.16187 6.26752 4.34614C6.26752 4.74873 6.86863 4.8423 6.93102 5.97645V8.43757C6.93102 8.97629 6.8346 9.07546 6.62196 9.07546C6.05489 9.07546 4.67689 6.99436 3.86033 4.61267C3.69591 4.15051 3.53424 3.96338 3.10612 3.96338H1.43604C0.959703 3.96338 0.863281 4.18737 0.863281 4.43689C0.863281 4.87915 1.43036 7.0766 3.503 9.97998C4.88381 11.9618 6.82885 13.0365 8.59811 13.0365C9.66135 13.0365 9.7918 12.7984 9.7918 12.3872C9.7918 10.4932 9.69541 10.3145 10.2285 10.3145C10.4751 10.3145 10.9004 10.4393 11.8929 11.3948C13.0269 12.5289 13.2141 13.0365 13.8492 13.0365H15.5192C15.9956 13.0365 16.2366 12.7983 16.0976 12.3276C15.7801 11.3381 13.6337 9.30231 13.5373 9.16621C13.2906 8.84865 13.3615 8.70684 13.5373 8.42329C13.5402 8.42053 15.5787 5.55115 15.7886 4.57863Z" fill="white"/>
</svg>

<svg width="17" height="17" fill="none" xmlns="http://www.w3.org/2000/svg"><path d="M15.789 4.579c.104-.355 0-.616-.505-.616h-1.67c-.425 0-.621.224-.726.474 0 0-.85 2.072-2.053 3.416-.388.389-.567.514-.78.514-.104 0-.266-.125-.266-.48V4.58c0-.426-.12-.616-.47-.616H6.692c-.267 0-.425.199-.425.383 0 .403.6.496.663 1.63v2.462c0 .538-.096.637-.309.637-.567 0-1.945-2.08-2.762-4.462-.164-.462-.326-.65-.754-.65h-1.67c-.476 0-.573.224-.573.474 0 .442.567 2.64 2.64 5.543 1.38 1.982 3.326 3.056 5.095 3.056 1.063 0 1.194-.238 1.194-.649 0-1.894-.097-2.072.437-2.072.246 0 .671.124 1.664 1.08 1.134 1.134 1.321 1.642 1.956 1.642h1.67c.477 0 .718-.239.579-.71-.318-.989-2.464-3.025-2.56-3.16-.247-.318-.177-.46 0-.744.002-.002 2.04-2.872 2.25-3.844z" fill="#fff"/></svg>
